public/svgs/light/microchip.svg

<svg xmlns="http://www.w3.org/2000/svg" viewBox="0 0 512 512"><!-- Font Awesome Pro 6.0.0-alpha2 by @fontawesome - https://fontawesome.com License - https://fontawesome.com/license (Commercial License) --><path d="M352 128H160C142.328 128 128 142.326 128 160V352C128 369.674 142.328 384 160 384H352C369.674 384 384 369.674 384 352V160C384 142.326 369.674 128 352 128ZM352 352H160V160H352V352ZM496 272C504.844 272 512 264.844 512 256S504.844 240 496 240H448V176H496C504.844 176 512 168.844 512 160S504.844 144 496 144H448V128C448 92.654 419.348 64 384 64H368V16C368 7.156 360.844 0 352 0S336 7.156 336 16V64H272V16C272 7.156 264.844 0 256 0S240 7.156 240 16V64H176V16C176 7.156 168.844 0 160 0S144 7.156 144 16V64H128C92.654 64 64 92.654 64 128V144H16C7.156 144 0 151.156 0 160S7.156 176 16 176H64V240H16C7.156 240 0 247.156 0 256S7.156 272 16 272H64V336H16C7.156 336 0 343.156 0 352S7.156 368 16 368H64V384C64 419.346 92.654 448 128 448H144V496C144 504.844 151.156 512 160 512S176 504.844 176 496V448H240V496C240 504.844 247.156 512 256 512S272 504.844 272 496V448H336V496C336 504.844 343.156 512 352 512S368 504.844 368 496V448H384C419.348 448 448 419.346 448 384V368H496C504.844 368 512 360.844 512 352S504.844 336 496 336H448V272H496ZM416 384C416 401.645 401.645 416 384 416H128C110.355 416 96 401.645 96 384V128C96 110.355 110.355 96 128 96H384C401.645 96 416 110.355 416 128V384Z"/></svg>

<svg xmlns="http://www.w3.org/2000/svg" viewBox="0 0 512 512"><!--! Font Awesome Pro 6.5.1 by @fontawesome - https://fontawesome.com License - https://fontawesome.com/license (Commercial License) Copyright 2023 Fonticons, Inc. --><path d="M176 16c0-8.8-7.2-16-16-16s-16 7.2-16 16V64H128c-35.3 0-64 28.7-64 64v16H16c-8.8 0-16 7.2-16 16s7.2 16 16 16H64v64H16c-8.8 0-16 7.2-16 16s7.2 16 16 16H64v64H16c-8.8 0-16 7.2-16 16s7.2 16 16 16H64v16c0 35.3 28.7 64 64 64h16v48c0 8.8 7.2 16 16 16s16-7.2 16-16V448h64v48c0 8.8 7.2 16 16 16s16-7.2 16-16V448h64v48c0 8.8 7.2 16 16 16s16-7.2 16-16V448h16c35.3 0 64-28.7 64-64V368h48c8.8 0 16-7.2 16-16s-7.2-16-16-16H448V272h48c8.8 0 16-7.2 16-16s-7.2-16-16-16H448V176h48c8.8 0 16-7.2 16-16s-7.2-16-16-16H448V128c0-35.3-28.7-64-64-64H368V16c0-8.8-7.2-16-16-16s-16 7.2-16 16V64H272V16c0-8.8-7.2-16-16-16s-16 7.2-16 16V64H176V16zM416 128V384c0 17.7-14.3 32-32 32H128c-17.7 0-32-14.3-32-32V128c0-17.7 14.3-32 32-32H384c17.7 0 32 14.3 32 32zm-256 0c-17.7 0-32 14.3-32 32V352c0 17.7 14.3 32 32 32H352c17.7 0 32-14.3 32-32V160c0-17.7-14.3-32-32-32H160zm192 32V352H160V160H352z"/></svg>
